assets/img/gm-black.svg

<svg fill="none" height="39" viewBox="0 0 101 39" width="101" xmlns="http://www.w3.org/2000/svg"><rect fill="#000" height="35.8615" rx="10.2941" stroke="#fff" stroke-width="2.76559" width="97.0254" x="1.61721" y="1.61721"/><g fill="#fff"><path d="m19.6295 19.1297c0-.5588.453-1.0118 1.0117-1.0118h10.1135c.5587 0 1.0133.4531 1.0002 1.0117-.0206.8791-.0688 1.6964-.1445 2.4519-.104 1.038-.312 2.0019-.624 2.8916-.4368 1.2499-1.0296 2.3621-1.7784 3.3365-.7488.9533-1.6328 1.7583-2.652 2.415-.9984.6355-2.1009 1.1228-3.3073 1.4617-1.2064.339-2.4752.5084-3.8064.5084-1.8304 0-3.5048-.3071-5.0233-.9215-1.4976-.6143-2.7872-1.4723-3.8688-2.5738-1.08161-1.1228-1.92402-2.4574-2.52723-4.0038-.6032-1.5676-.90481-3.2942-.90481-5.1795 0-1.8642.29121-3.5696.87361-5.116.60321-1.5676 1.44562-2.9022 2.52723-4.0038 1.1024-1.10156 2.4232-1.95951 3.9624-2.57385 1.5393-.61434 3.2553-.92151 5.1481-.92151 2.4544 0 4.6072.54019 6.4585 1.62058 1.5854.92526 2.8886 2.28558 3.9095 4.08098.2853.5016.0451 1.1271-.4867 1.3513l-3.8867 1.6387c-.518.2184-1.1071-.0322-1.3796-.5238-.4674-.8437-1.0282-1.4797-1.6822-1.9079-.8528-.5719-1.8304-.8579-2.9328-.8579-.9152 0-1.7472.18-2.496.5402-.7488.3389-1.3936.8367-1.9345 1.4935-.52.6355-.936 1.4087-1.248 2.3196-.2912.9109-.4368 1.9278-.4368 3.0505 0 1.0169.1248 1.9595.3744 2.8281.2704.8685.6656 1.6206 1.1856 2.2561.5201.6355 1.1649 1.1333 1.9345 1.4935.7696.3389 1.664.5084 2.6832.5084.6032 0 1.1856-.0636 1.7472-.1907.5616-.1482 1.0608-.3707 1.4976-.6673.4576-.3177.832-.7202 1.1232-1.2075.1179-.1971.2204-.4116.3076-.6435.2175-.5785-.2701-1.1359-.8882-1.1359h-2.8381c-.5587 0-1.0117-.453-1.0117-1.0118z"/><path d="m34.3736 31.5276c-.6253 0-1.1008-.5614-.998-1.1781l3.6563-21.93571c.0813-.48784.5034-.8454.998-.8454h4.4906c.4237 0 .8026.26408.9492.66165l3.5148 9.53006c.3258.8832 1.5754.8818 1.8993-.0021l3.49-9.52591c.1461-.39864.5255-.6637.95-.6637h4.489c.4946 0 .9167.35756.998.8454l3.6563 21.93571c.1028.6167-.3727 1.1781-.9979 1.1781h-4.0159c-.5019 0-.928-.368-1.001-.8646l-1.3572-9.2293c-.1502-1.0214-1.5539-1.1884-1.9395-.2308l-3.9026 9.6909c-.1542.3829-.5257.6338-.9385.6338h-1.054c-.4194 0-.7953-.2587-.945-.6504l-3.6415-9.524c-.3721-.9731-1.7945-.8166-1.946.2141l-1.3376 9.0957c-.073.4966-.4991.8646-1.001.8646z"/><path clip-rule="evenodd" d="m63.4592 13.3392c0-3.35266 2.7179-6.07052 6.0705-6.07052h17.506c3.3526 0 6.0705 2.71785 6.0705 6.07052v4.3801c0 2.0739-1.6812 3.755-3.755 3.755s-3.755 1.6812-3.755 3.755v1.2366c0 2.7568-2.2348 4.9916-4.9916 4.9916h-4.8403c-2.7568 0-4.9916-2.2348-4.9916-4.9916v-1.3348c0-2.0196-1.6371-3.6568-3.6567-3.6568s-3.6568-1.6372-3.6568-3.6567zm11.9713 1.4296c0 2.5795-1.9099 4.6706-4.2658 4.6706-2.356 0-4.2659-2.0911-4.2659-4.6706 0-2.5794 1.9099-4.6705 4.2659-4.6705 2.3559 0 4.2658 2.0911 4.2658 4.6705zm9.9077 4.6706c2.3559 0 4.2658-2.091 4.2658-4.6705s-1.9099-4.6705-4.2658-4.6705c-2.356 0-4.2659 2.091-4.2659 4.6705s1.9099 4.6705 4.2659 4.6705zm-11.2557 2.2801c0-.5863.4752-1.0615 1.0614-1.0615h.4648c1.1725 0 2.1229.9505 2.1229 2.1229v.4648c0 .5862-.4752 1.0615-1.0614 1.0615h-.4648c-1.1725 0-2.1229-.9505-2.1229-2.123zm6.8364-1.0828c-1.1725 0-2.1229.9505-2.1229 2.123v.4648c0 .5862.4752 1.0614 1.0614 1.0614h.4648c1.1725 0 2.1229-.9505 2.1229-2.1229v-.4648c0-.5862-.4752-1.0615-1.0614-1.0615z" fill-rule="evenodd"/></g></svg>

<svg width="101" height="39" viewBox="0 0 101 39" fill="none" xmlns="http://www.w3.org/2000/svg">
<rect x="1.61721" y="1.61721" width="97.0254" height="35.8615" rx="10.2941" fill="black" stroke="white" stroke-width="2.76559"/>
<path d="M19.6295 19.1297C19.6295 18.5709 20.0825 18.1179 20.6412 18.1179H30.7547C31.3134 18.1179 31.768 18.571 31.7549 19.1296C31.7343 20.0087 31.6861 20.826 31.6104 21.5815C31.5064 22.6195 31.2984 23.5834 30.9864 24.4731C30.5496 25.723 29.9568 26.8352 29.208 27.8096C28.4592 28.7629 27.5752 29.5679 26.556 30.2246C25.5576 30.8601 24.4551 31.3474 23.2487 31.6863C22.0423 32.0253 20.7735 32.1947 19.4423 32.1947C17.6119 32.1947 15.9375 31.8876 14.419 31.2732C12.9214 30.6589 11.6318 29.8009 10.5502 28.6994C9.46859 27.5766 8.62618 26.242 8.02297 24.6956C7.41977 23.128 7.11816 21.4014 7.11816 19.5161C7.11816 17.6519 7.40937 15.9465 7.99177 14.4001C8.59498 12.8325 9.43739 11.4979 10.519 10.3963C11.6214 9.29474 12.9422 8.43679 14.4814 7.82245C16.0207 7.20811 17.7367 6.90094 19.6295 6.90094C22.0839 6.90094 24.2367 7.44113 26.088 8.52152C27.6734 9.44678 28.9766 10.8071 29.9975 12.6025C30.2828 13.1041 30.0426 13.7296 29.5108 13.9538L25.6241 15.5925C25.1061 15.8109 24.517 15.5603 24.2445 15.0687C23.7771 14.225 23.2163 13.589 22.5623 13.1608C21.7095 12.5889 20.7319 12.3029 19.6295 12.3029C18.7143 12.3029 17.8823 12.4829 17.1335 12.8431C16.3847 13.182 15.7399 13.6798 15.199 14.3366C14.679 14.9721 14.263 15.7453 13.951 16.6562C13.6598 17.5671 13.5142 18.584 13.5142 19.7067C13.5142 20.7236 13.639 21.6662 13.8886 22.5348C14.159 23.4033 14.5542 24.1554 15.0742 24.7909C15.5943 25.4264 16.2391 25.9242 17.0087 26.2844C17.7783 26.6233 18.6727 26.7928 19.6919 26.7928C20.2951 26.7928 20.8775 26.7292 21.4391 26.6021C22.0007 26.4539 22.4999 26.2314 22.9367 25.9348C23.3943 25.6171 23.7687 25.2146 24.0599 24.7273C24.1778 24.5302 24.2803 24.3157 24.3675 24.0838C24.585 23.5053 24.0974 22.9479 23.4793 22.9479H20.6412C20.0825 22.9479 19.6295 22.4949 19.6295 21.9361V19.1297Z" fill="white"/>
<path d="M34.3736 31.5276C33.7483 31.5276 33.2728 30.9662 33.3756 30.3495L37.0319 8.41379C37.1132 7.92595 37.5353 7.56839 38.0299 7.56839H42.5205C42.9442 7.56839 43.3231 7.83247 43.4697 8.23004L46.9845 17.7601C47.3103 18.6433 48.5599 18.6419 48.8838 17.758L52.3738 8.23209C52.5199 7.83345 52.8993 7.56839 53.3238 7.56839H57.8128C58.3074 7.56839 58.7295 7.92595 58.8108 8.41379L62.4671 30.3495C62.5699 30.9662 62.0944 31.5276 61.4692 31.5276H57.4533C56.9514 31.5276 56.5253 31.1596 56.4523 30.663L55.0951 21.4337C54.9449 20.4123 53.5412 20.2453 53.1556 21.2029L49.253 30.8938C49.0988 31.2767 48.7273 31.5276 48.3145 31.5276H47.2605C46.8411 31.5276 46.4652 31.2689 46.3155 30.8772L42.674 21.3532C42.3019 20.3801 40.8795 20.5366 40.728 21.5673L39.3904 30.663C39.3174 31.1596 38.8913 31.5276 38.3894 31.5276H34.3736Z" fill="white"/>
<path fill-rule="evenodd" clip-rule="evenodd" d="M63.4592 13.3392C63.4592 9.98654 66.1771 7.26868 69.5297 7.26868H87.0357C90.3883 7.26868 93.1062 9.98653 93.1062 13.3392V17.7193C93.1062 19.7932 91.425 21.4743 89.3512 21.4743C87.2774 21.4743 85.5962 23.1555 85.5962 25.2293V26.4659C85.5962 29.2227 83.3614 31.4575 80.6046 31.4575H75.7643C73.0075 31.4575 70.7727 29.2227 70.7727 26.4659V25.1311C70.7727 23.1115 69.1356 21.4743 67.116 21.4743C65.0964 21.4743 63.4592 19.8371 63.4592 17.8176V13.3392ZM75.4305 14.7688C75.4305 17.3483 73.5206 19.4394 71.1647 19.4394C68.8087 19.4394 66.8988 17.3483 66.8988 14.7688C66.8988 12.1894 68.8087 10.0983 71.1647 10.0983C73.5206 10.0983 75.4305 12.1894 75.4305 14.7688ZM85.3382 19.4394C87.6941 19.4394 89.604 17.3484 89.604 14.7689C89.604 12.1894 87.6941 10.0984 85.3382 10.0984C82.9822 10.0984 81.0723 12.1894 81.0723 14.7689C81.0723 17.3484 82.9822 19.4394 85.3382 19.4394ZM74.0825 21.7195C74.0825 21.1332 74.5577 20.658 75.1439 20.658H75.6087C76.7812 20.658 77.7316 21.6085 77.7316 22.7809V23.2457C77.7316 23.8319 77.2564 24.3072 76.6702 24.3072H76.2054C75.0329 24.3072 74.0825 23.3567 74.0825 22.1842V21.7195ZM80.9189 20.6367C79.7464 20.6367 78.796 21.5872 78.796 22.7597V23.2245C78.796 23.8107 79.2712 24.2859 79.8574 24.2859H80.3222C81.4947 24.2859 82.4451 23.3354 82.4451 22.163V21.6982C82.4451 21.112 81.9699 20.6367 81.3837 20.6367H80.9189Z" fill="white"/>
</svg>
